!!!!SEGMENT: pl-kk--kk-i-40--004-001_lasso-rudolph-di--missa-kyrie.krn
!!!id: 16xx:1289
!!!COM: Lasso, Rudolph di
!!!COM-rism: pe30014045
!!!CDT: ~1563-1625
!!!CNT:
!!!OTL: Missa – Kyrie
!!!PDT:
!!!SMS-siglum: PL-Kk
!!!SMS-shelfmark: Kk.I.40
!!!NIFC-rismID: 1001154490
!!!URL-scan: http://repozytorium.nifc.pl/skany/pl-kk-nut--i-40
!!!ONB-nifc: UWAGA: części Mszy: 1. Kyrie, 2. Et in terra, 3. Sanctus, 4. Agnus Dei. Skan 0007-0008
!!!SMS-variant:
!!!SMS-altvar:
**kern	**text
*I"Baſso Ripieno.	*
*clefF4	*
*k[b-]	*
*M2/1	*
*met(c|)	*
=1-	=1-
!LO:TX:a:t=P:problem:w źródle znaki przykluczowe B- i BB-, zapisane jeden nad drugim	!
00r	.
=2-	=2-
.	.
=3-	=3-
!LO:TX:t=P:problem:kreska pseudotaktowa	!
00r	.
=4-	=4-
.	.
=5-	=5-
*2\right	*
2G\	Ky-
4G\	-ri-
!LO:TX:t=P:problem:kreska pseudotaktowa	!
4GG/	-e
2D\	e-
4D\	-lei-
!LO:TX:t=P:problem:kreska pseudotaktowa	!
4E\	-son
=6-	=6-
*	*ij
4F\	Ky-
4D\	-ri-
4F\	-e
4G\	e-
!LO:TX:t=P:problem:kreska pseudotaktowa	!
1E	-lei-
=7-	=7-
2.D/	-son
*	*Xij
4C/	.
2BBn/	Ky-
2C/	-ri-
=8-	=8-
!LO:TX:t=P:problem:kreska pseudotaktowa	!
1GG	-e
2C/	e-
2C/	-lei-
=9-	=9-
1D	.
2GG,</	-son
1G\	Ky-
=10-	=10-
!LO:TX:t=P:problem:kreska pseudotaktowa	!
2F#X\	-ri-
!LO:LB:g=original	!
2G\	-e
2GG/	e-
=11-	=11-
2.D/	-lei-
!LO:TX:t=P:problem:kreska pseudotaktowa	!
4C/	.
4BB-y/	.
4AA/	.
!LO:TX:t=P:problem:kreska pseudotaktowa	!
2GG/	.
=12-	=12-
0D	-son.
=13-	=13-
!LO:TX:t=P:problem:kreska pseudotaktowa	!
0GG;>	.
=14||-	=14||-
*M2/1	*
*met(c|)	*
!LO:TX:t=P:problem:kreska pseudotaktowa	!
1r	.
1D	Chri-
=15-	=15-
2F\ny	-ste
!LO:TX:t=P:problem:kreska pseudotaktowa	!
2E\	e-
1.D	-lei-
=16-	=16-
2C/	.
1BB-	.
=17-	=17-
2AA,</	-son
*	*ij
!LO:TX:t=P:problem:kreska pseudotaktowa	!
2A\	Chri-
2G\	-ste
2F#X\	e-
=18-	=18-
!LO:TX:t=P:problem:kreska pseudotaktowa	!
1G	-lei-
2D,<\	-son
*	*Xij
2.D\	Chri-
=19-	=19-
4D/	-ste
!LO:TX:t=P:problem:kreska pseudotaktowa	!
2C#X/	.
2.D/	e-
8Cny/L	-lei-
8BB-/J	.
=20-	=20-
1AA	.
0A	.
=21-	=21-
!LO:TX:t=P:problem:kreska pseudotaktowa	!
1D	-son
=22-	=22-
00r	.
=23-	=23-
.	.
=24-	=24-
1G	X-
!LO:TX:t=P:problem:kreska pseudotaktowa	!
1D	-te
!LO:LB:g=original	!
=25-	=25-
2BB-/	e-
2.F\ny	-lei-
4E\	.
4D/	.
!LO:TX:t=P:problem:kreska pseudotaktowa	!
4C/	.
=26-	=26-
2.BB-/	.
4AA/	.
1GG	.
=27-	=27-
!LO:TX:t=P:problem:podwójna kreska pseudotaktowa	!
0D;>	-son.
=28||-	=28||-
*M2/1	*
*met(c|)	*
1r	.
2.D\	Ky-
4D/	-ri-
=29-	=29-
2D/	-e
2BB-/	.
1F	e-
=30-	=30-
!LO:TX:t=P:problem:kreska pseudotaktowa	!
1F	-lei-
2.BB-/	-son
4AA/	.
=31-	=31-
*	*ij
1.GG	Ky-
!LO:TX:t=P:problem:kreska pseudotaktowa	!
2D/	-ri-
=32-	=32-
2G\	-e
2E-X\	e-
!LO:TX:t=P:problem:kreska pseudotaktowa	!
1D	-lei-
=33-	=33-
2G,<\	-son
*	*Xij
4G\	Ky-
4G\	-ri-
!LO:TX:t=P:problem:kreska pseudotaktowa	!
1D	-e
=34-	=34-
0r	.
=35-	=35-
2r	.
2D\	Ky-
2D/	-ri-
2C#X/	-e
=36-	=36-
4D/	e-
4C#/	.
4BB-/	.
4AA/	.
2GG/	-lei-
2AA/	.
=37-	=37-
2D,<\	-son
!LO:TX:t=P:problem:kreska pseudotaktowa	!
2D\	Ky-
2G\	-ri-
2A\	-e
=38-	=38-
2.D/	e-
4C/ny	.
4BB-/	-lei-
4AA/	.
2.GG/	.
=39-	=39-
4AA/	.
4BB-/	.
4GG/	.
1D	.
=40-	=40-
0GG;>	-son.
=-	=-
*-	*-
!!!RDF**kern: > = above
!!!RDF**kern: < = below
!!!EED: Antoni Szymański
!!!EST: 2021-07-31
!!!ENC:Berenika Jozajtis
!!!END:2021-07-04
